X: 1578
T: Perîşân Halin Oldum
C: Emin Ongan
O: Turkey
F: http://compmusic.upf.edu/node/140
N: bestenigar--sarki--aksak--perisan_halin--emin_ongan
N: makam= bestenigar
N: form= sarki
N: usul= aksak = 9/8
M: 9/8
L: 1/16
K: C _2/4B _3/4d  
Q: 1/4=132
%%MIDI tuningsystem comma53
B2c6 d4 e6 | g2 f4 e2ed dcc6  | c2c4d2 e2f2 g2_7/8ag f2 | 
w:  Pe rî şân  ha  |  lin_ ol *  dum  *  *  *  sor  |  ma dın  *  hal_ *  i   | 
g2 _7/8a4 gfed cBc6  | B2c6 d4 e6 | g2 f4 e2ed dcc6  | 
w:  pe rî *  *  şâ *  *  *  nım    |  Pe rî şân  ha  |  lin_ ol *  dum  *  *  *  sor  | 
c2c4d2 e2f2 g2_7/8ag f2 | g2 _7/8a4 gfed cBc6  | \
w:  ma dın  *  hal_ *  i   |  pe rî *  *  şâ *  *  *  nım    | 
e2d4c2 B4 d6 | 
w:  Ga mın *  dan  der  | 
c2 d2e2 f2_7/8ag fef6  | f2c'6 b4 _7/8a4 gf | \
w:  de  düş *  *  tüm  *  *  *  kıl  |  ma dın  ted bîr_  | 
g2 _7/8a4 g2gf fee6  | 
w:  i  der *  mâ *  *  *  nım    | 
e2d4c2 B4 d6 | B2 c4 d2cB BAA4G^F  | \
w:  Ga mın *  dan  der  |  de  düş *  tüm  *  *  *  kıl  | 
^F2d6 c4 B6 | A2 c4 BAAG ^F^EF6  | 
w:  ma dın  ted bîr_  |  i  der *  *  mâ *  *  *  nım    | 
^f2f6 g4 a6 | =b2 c'4 b2ba a^ga6  | a2=d'6 c'4 =b4 a2 | \
w:  Ne  der sin  mih  |  ri bâ *  nım  *  *  *  böy  |  le  mi  geç sin   | 
=b2 c'4 b2ba a^ga6  | 
w:  gü zel  *  ça *  *  *  ğım    | 
a2g4^f2 ^e2f2 agfe d2 | e2 f2e2 f2ed cBc6  | \
w:  Ne  der *  sin  *  mih  |  ri bâ *  *  nım  *  *  *  böy  | 
c2c4d2 e2f2 g2_7/8ag f2 | 
w:  le  mi  *  geç *  sin   | 
g2 _7/8a4 gfed cBc6  | e2d4c2 B4 d6 | \
w:  gü zel  *  *  ça *  *  *  ğım    |  Ga mın *  dan  der  | 
c2 d2e2 f2_7/8ag fef6  | 
w:  de  düş *  *  tüm  *  *  *  kıl  | 
f2c'6 b4 _7/8a4 gf | g2 _7/8a4 g2gf fee6  | \
w:  ma dın  ted bîr_  |  i  der *  mâ *  *  *  nım    | 
e2d4c2 B4 d6 | B2 c4 d2cB BAA4G^F  | 
w:  Ga mın *  dan  der  |  de  düş *  tüm  *  *  *  kıl  | 
^F2d6 c4 B6 | A2 c4 BAAG ^F^EF6  | |


